!!!OTL: Twilight A-Stealing
!! From: "Folk Songs of the Southern Appalachians;
!! As Sung by Jean Ritchie"  2nd Edition.
!! University of Kentucky Press, 1997.
**kern
*clefG2
*k[f#c#]
*D:
*M4/4
=1-
{4d
8.d
16e
4f#
4a
=2
4d
8d
8f#
4e}
4r
=3
{4c#
8c#
8d
4e
4g
=4
4f#
8.f#
16e#
4f#}
4r
=5
{4d
8.d
16e
4f#
4a}
=6
{4d
8d
8f#
4e}
4r
=7
{4c#
8.c#
16d
4e
4f#
=8
*M3/4
2d}
4r
=9
*M4/4
{4.a
8f#
4f#
8r
8a
=10
*M5/4
8b
8a
8a
8f#
2e}
{8.e
16e
=11
*M4/4
2a
2e
=12
8.f#
16g
8f#
8e
4d}
4r
=13
{4d
8.d
16e
4f#
4a
=14
4d
8.d
16f#
4.e}
4r
=15
{4c#
8.c#
16d
4e
4f#
=16
2d}
2r
==
*-
